icons/pulse-24.svg

<svg xmlns="http://www.w3.org/2000/svg" width="24" height="24" viewBox="0 0 24 24"><path fill-rule="evenodd" d="M9.002 2.5a.75.75 0 01.691.464l6.302 15.305 2.56-6.301a.75.75 0 01.695-.468h4a.75.75 0 010 1.5h-3.495l-3.06 7.532a.75.75 0 01-1.389.004L8.997 5.21l-3.054 7.329A.75.75 0 015.25 13H.75a.75.75 0 010-1.5h4l3.558-8.538a.75.75 0 01.694-.462z"/></svg>

<svg xmlns="http://www.w3.org/2000/svg" width="24" height="24" viewBox="0 0 24 24">
  <defs/>
  <path d="M9.002,2.5 C9.305,2.501 9.577,2.684 9.693,2.964 L15.995,18.269 L18.555,11.968 C18.67,11.685 18.945,11.5 19.25,11.5 L23.25,11.5 C23.664,11.5 24,11.836 24,12.25 C24,12.664 23.664,13 23.25,13 L19.755,13 L16.695,20.532 C16.581,20.815 16.307,21 16.002,21.001 C15.697,21.002 15.422,20.818 15.306,20.536 L8.997,5.21 L5.943,12.539 C5.826,12.819 5.553,13 5.25,13 L0.75,13 C0.336,13 0,12.664 0,12.25 C0,11.836 0.336,11.5 0.75,11.5 L4.75,11.5 L8.308,2.962 C8.425,2.682 8.698,2.499 9.002,2.5 Z"/>
</svg>
